media/costumes/9-glow.svg

<svg width="58" height="73" xmlns="http://www.w3.org/2000/svg"><path fill="#0CC" d="M57.324 30.354c0 3.86-.09 7.5-.28 10.82-.01.08-.01.15-.02.22-.39 5.08-1.36 9.37-2.97 13.11-1.98 4.5-5.12 8.59-9.34 12.24-.69.59-1.44 1.09-2.25 1.49l-2.36 1.18c-3.8 2.01-8.3 3.16-13.37 3.41-.04.01-.07.01-.1.01-.35.01-.69.02-1.02.02-4.86 0-9.41-1.4-13.54-4.15-.6-.4-1.16-.86-1.68-1.37-1.2-1.21-1.9-2.46-2.38-3.41-.91-1.84-1.36-3.65-1.36-5.51 0-1.06.15-2.1.44-3.1.34-1.87 1.06-3.62 2.16-5.16-2.59-2.08-4.62-4.52-6.04-7.3-1.9-3.67-2.95-7.52-3.15-11.43-.37-6.8.87-12.19 3.8-16.41 2.67-3.87 6.45-7.32 11.2-10.21 5.16-3.13 9.96-4.7 14.66-4.8.35-.01.7 0 1.04.02 1.88.14 3.03.22 3.43.25.46.02.92.06 1.37.14 4.64.78 7.72 2.82 9.61 4.61.32.27.7.61 1.15 1 .49.43.93.91 1.34 1.42l2.62 3.33c1.63 2.03 2.79 3.88 3.59 5.72.43.77.93 1.7 1.5 2.79.14.27.27.54.39.82 1.08 2.57 1.56 5.73 1.56 10.25z"/><path fill="#FFF" d="M46.325 30.351c0 3.694-.09 7.096-.266 10.203-.293 3.812-.996 7.008-2.109 9.588-1.291 2.934-3.432 5.688-6.422 8.268-.587.295-1.407.705-2.463 1.232-2.405 1.291-5.365 2.023-8.884 2.199-2.874.117-5.542-.645-8.005-2.287-.059-.059-.162-.234-.308-.527-.146-.293-.22-.498-.22-.617.058-.057.147-.115.266-.176-.237-1.758.734-2.639 2.913-2.639.765 0 1.441.147 2.031.44.176.235.501.499.972.792 1.059.352 2.118.527 3.18.527 3.531 0 6.651-1.584 9.359-4.75 2.588-2.932 3.885-6.01 3.885-9.236a6.55 6.55 0 0 0-.176-1.582c-2.883 2.756-6.617 4.133-11.205 4.133-3.354 0-6.544-.775-9.572-2.33-3.029-1.553-5.133-3.475-6.309-5.762-1.177-2.287-1.824-4.603-1.94-6.949-.235-4.279.38-7.477 1.847-9.588 1.817-2.639 4.442-4.998 7.872-7.08 3.431-2.081 6.494-3.152 9.192-3.211 2.403.176 3.664.264 3.782.264 1.759.295 3.107.939 4.046 1.936.293.234.704.587 1.232 1.056.879 1.114 1.758 2.229 2.639 3.343 1.172 1.467 1.934 2.697 2.287 3.693.408.704.967 1.73 1.67 3.079.469 1.114.706 3.108.706 5.981zm-6.598-6.51c-.119-.057-.309-.424-.572-1.099-.264-.674-.602-1.012-1.011-1.012-.353-1.876-1.056-3.136-2.111-3.782a72.518 72.518 0 0 1-1.495-.968l.088-.088c-.176-.292-.528-.469-1.056-.528h-1.056c-1.936-.409-3.313-.527-4.134-.352-1.818.352-3.842 1.379-6.069 3.079-2.405 1.759-3.959 3.548-4.662 5.365-.47 1.114-.734 2.347-.792 3.694-.118 1.525.104 3.299.663 5.322.558 2.022 2.015 3.855 4.369 5.497 2.354 1.643 4.59 2.405 6.709 2.287 2.884.411 5.71-.88 8.477-3.87 2.588-2.873 3.883-5.894 3.883-9.061 0-1.583-.439-2.932-1.318-4.046a.995.995 0 0 0 .087-.438z"/></svg>

<svg version="1.1" width="58" height="73" xmlns="http://www.w3.org/2000/svg" xmlns:xlink="http://www.w3.org/1999/xlink">
  <!-- Exported by Scratch - http://scratch.mit.edu/ -->
  <g id="ID0.3123546182177961">
    <g id="ID0.2842099638655782">
      <g id="ID0.12955296225845814">
        <path id="ID0.24021119577810168" fill="#00CCCC" d="M 57.324 30.354 C 57.324 34.214 57.234 37.854 57.044 41.174 C 57.034 41.254 57.034 41.324 57.024 41.394 C 56.634 46.474 55.664 50.764 54.054 54.504 C 52.074 59.004 48.934 63.094 44.714 66.744 C 44.024 67.334 43.274 67.834 42.464 68.234 L 40.104 69.414 C 36.304 71.424 31.804 72.574 26.734 72.824 C 26.694 72.834 26.664 72.834 26.634 72.834 C 26.284 72.844 25.944 72.854 25.614 72.854 C 20.754 72.854 16.204 71.454 12.074 68.704 C 11.474 68.304 10.914 67.844 10.394 67.334 C 9.194 66.124 8.494 64.874 8.014 63.924 C 7.104 62.084 6.654 60.274 6.654 58.414 C 6.654 57.354 6.804 56.314 7.094 55.314 C 7.434 53.444 8.154 51.694 9.254 50.154 C 6.664 48.074 4.634 45.634 3.214 42.854 C 1.314 39.184 0.264 35.334 0.064 31.424 C -0.306 24.624 0.934 19.234 3.864 15.014 C 6.534 11.144 10.314 7.694 15.064 4.804 C 20.224 1.674 25.024 0.104 29.724 0.004 C 30.074 -0.006 30.424 0.004 30.764 0.024 C 32.644 0.164 33.794 0.244 34.194 0.274 C 34.654 0.294 35.114 0.334 35.564 0.414 C 40.204 1.194 43.284 3.234 45.174 5.024 C 45.494 5.294 45.874 5.634 46.324 6.024 C 46.814 6.454 47.254 6.934 47.664 7.444 L 50.284 10.774 C 51.914 12.804 53.074 14.654 53.874 16.494 C 54.304 17.264 54.804 18.194 55.374 19.284 C 55.514 19.554 55.644 19.824 55.764 20.104 C 56.844 22.674 57.324 25.834 57.324 30.354 Z "/>
      </g>
    </g>
    <g id="ID0.21459485217928886">
      <path id="ID0.30180751578882337" fill="#FFFFFF" d="M 46.325 30.351 C 46.325 34.045 46.235 37.447 46.059 40.554 C 45.766 44.366 45.063 47.562 43.950 50.142 C 42.659 53.076 40.518 55.830 37.528 58.410 C 36.941 58.705 36.121 59.115 35.065 59.642 C 32.660 60.933 29.700 61.665 26.181 61.841 C 23.307 61.958 20.639 61.196 18.176 59.554 C 18.117 59.495 18.014 59.320 17.868 59.027 C 17.722 58.734 17.648 58.529 17.648 58.410 C 17.706 58.353 17.795 58.295 17.914 58.234 C 17.677 56.476 18.648 55.595 20.827 55.595 C 21.592 55.595 22.268 55.742 22.858 56.035 C 23.034 56.270 23.359 56.534 23.830 56.827 C 24.889 57.179 25.948 57.354 27.010 57.354 C 30.541 57.354 33.661 55.770 36.369 52.604 C 38.957 49.672 40.254 46.594 40.254 43.368 C 40.254 42.783 40.195 42.255 40.078 41.786 C 37.195 44.542 33.461 45.919 28.873 45.919 C 25.519 45.919 22.329 45.144 19.301 43.589 C 16.272 42.036 14.168 40.114 12.992 37.827 C 11.815 35.540 11.168 33.224 11.052 30.878 C 10.817 26.599 11.432 23.401 12.899 21.290 C 14.716 18.651 17.341 16.292 20.771 14.210 C 24.202 12.129 27.265 11.058 29.963 10.999 C 32.366 11.175 33.627 11.263 33.745 11.263 C 35.504 11.558 36.852 12.202 37.791 13.199 C 38.084 13.433 38.495 13.786 39.023 14.255 C 39.902 15.369 40.781 16.484 41.662 17.598 C 42.834 19.065 43.596 20.295 43.949 21.291 C 44.357 21.995 44.916 23.021 45.619 24.370 C 46.088 25.484 46.325 27.478 46.325 30.351 Z M 39.727 23.841 C 39.608 23.784 39.418 23.417 39.155 22.742 C 38.891 22.068 38.553 21.730 38.144 21.730 C 37.791 19.854 37.088 18.594 36.033 17.948 C 35.387 17.538 34.889 17.216 34.538 16.980 L 34.626 16.892 C 34.450 16.600 34.098 16.423 33.570 16.364 C 33.218 16.364 32.866 16.364 32.514 16.364 C 30.578 15.955 29.201 15.837 28.380 16.012 C 26.562 16.364 24.538 17.391 22.311 19.091 C 19.906 20.850 18.352 22.639 17.649 24.456 C 17.179 25.570 16.915 26.803 16.857 28.150 C 16.739 29.675 16.961 31.449 17.520 33.472 C 18.078 35.494 19.535 37.327 21.889 38.969 C 24.243 40.612 26.479 41.374 28.598 41.256 C 31.482 41.667 34.308 40.376 37.075 37.386 C 39.663 34.513 40.958 31.492 40.958 28.325 C 40.958 26.742 40.519 25.393 39.640 24.279 C 39.696 24.165 39.727 24.018 39.727 23.841 Z "/>
    </g>
  </g>
</svg>
